icon-svg/twinkly-candies-pearl.svg

<svg xmlns="http://www.w3.org/2000/svg" fill="#44739e" viewBox="0 0 24 24"><path d="M21.586 17.051a.414.414 0 0 0-.414.414.41.41 0 0 0 .066.223l-.015.021a4.14 4.14 0 0 1-.712.8.41.41 0 0 0-.3-.126.414.414 0 0 0-.37.6 4.23 4.23 0 0 1-.841.367.414.414 0 0 0-.794.163 2.77 2.77 0 0 1-.986-.067.3.3 0 0 0 0-.045.415.415 0 0 0-.414-.414.408.408 0 0 0-.247.083 1.9 1.9 0 0 1-.453-.925.414.414 0 0 0 .317-.4v-.015a.414.414 0 0 0-.365-.4 2.73 2.73 0 0 1 .168-.771 2.2 2.2 0 0 1 .169-.343.407.407 0 0 0 .224.067.413.413 0 0 0 .336-.655 6.24 6.24 0 0 1 .822-.465c.138-.069.281-.141.427-.22a.414.414 0 0 0 .74-.255.41.41 0 0 0-.038-.172 5.35 5.35 0 0 0 .753-.64c.019-.019.116-.12.258-.291a.407.407 0 0 0 .224.067.414.414 0 0 0 .264-.733 7.2 7.2 0 0 0 .625-1.181.37.37 0 0 0 .067.006.414.414 0 0 0 .193-.78 5.06 5.06 0 0 0 .17-1.224.414.414 0 0 0-.064-.82c-.017-.1-.037-.2-.061-.3a4.6 4.6 0 0 0-.261-.777.414.414 0 0 0-.4-.725 5.34 5.34 0 0 0-.792-.929.414.414 0 0 0-.64-.525 7 7 0 0 0-.94-.567.414.414 0 0 0-.751-.314 7.15 7.15 0 0 0-1.209-.287.414.414 0 0 0-.821-.074 6.5 6.5 0 0 0-.863.022c-.141.013-.289.033-.443.061a.413.413 0 0 0-.8.149.37.37 0 0 0 .006.068 2.89 2.89 0 0 0-1.014.637.414.414 0 0 0-.474.673 2.93 2.93 0 0 0-.258 1.282.413.413 0 0 0 .086.812c.036.183.082.371.14.564a3.85 3.85 0 0 0 .252.636.414.414 0 0 0 .458.685 6.75 6.75 0 0 0 .642.637c.074.067.148.134.22.2a.41.41 0 0 0-.058.211.414.414 0 0 0 .414.414.41.41 0 0 0 .174-.039 2.73 2.73 0 0 1 .382.768 3.4 3.4 0 0 1 .13.569.414.414 0 0 0 .033.793 4.65 4.65 0 0 1-.278 1.353c-.013.034-.026.069-.04.1a.4.4 0 0 0-.104-.017.413.413 0 0 0-.258.737 3.37 3.37 0 0 1-.779.863.414.414 0 0 0-.725.273.44.44 0 0 0 .016.115 3.13 3.13 0 0 1-1.2.168.414.414 0 0 0-.784-.165 1.9 1.9 0 0 1-.611-.381 1.6 1.6 0 0 1-.212-.248.414.414 0 0 0-.245-.747.4.4 0 0 0-.049 0 8.1 8.1 0 0 1-.1-1.25.414.414 0 0 0-.023-.814c-.014-.511-.025-.969-.035-1.378a.413.413 0 0 0-.018-.808c0-.175-.007-.338-.01-.491-.009-.438-.017-.792-.025-1.086a.414.414 0 0 0-.035-.811 3.18 3.18 0 0 0-.178-.917q-.088-.255-.2-.507a.414.414 0 0 0-.279-.72.44.44 0 0 0-.1.012 6.6 6.6 0 0 0-.909-1.172.414.414 0 0 0-.615-.538 2.954 2.954 0 0 0-1.292-.582.414.414 0 0 0-.817.078 2.337 2.337 0 0 0-1.08.91.4.4 0 0 0-.163-.032.413.413 0 0 0-.22.764 3.42 3.42 0 0 0-.211.87 2.77 2.77 0 0 0 0 .59.414.414 0 0 0 .161.8h.034a5.38 5.38 0 0 0 .766 1.306.414.414 0 0 0 .51.633 4.24 4.24 0 0 0 .654.625 3.3 3.3 0 0 1 .294.254.413.413 0 0 0 .323.673.42.42 0 0 0 .173-.038 5.02 5.02 0 0 1 .6 1.239.414.414 0 0 0 .167.789 3.9 3.9 0 0 1-.006.916l-.025.17H6.6a.414.414 0 0 0-.162.8 3.27 3.27 0 0 1-.354.746.42.42 0 0 0-.152-.029.413.413 0 0 0-.358.621 2.8 2.8 0 0 1-.234.185 2.85 2.85 0 0 1-.556.3.414.414 0 0 0-.773.057.45.45 0 0 0-.011.112v.031a3.8 3.8 0 0 1-1.17-.048.37.37 0 0 0-.015-.094.413.413 0 1 0-.009.253 4 4 0 0 0 1.237.045.414.414 0 0 0 .784-.187v-.014a3.2 3.2 0 0 0 .233-.106 2.9 2.9 0 0 0 .378-.227 2.9 2.9 0 0 0 .247-.2.414.414 0 0 0 .54-.625 3.45 3.45 0 0 0 .377-.8.414.414 0 0 0 .176-.788c.01-.07.018-.133.024-.186a4.1 4.1 0 0 0 0-.965.414.414 0 0 0-.152-.8h-.013a5.18 5.18 0 0 0-.623-1.3.414.414 0 0 0-.5-.644 3.3 3.3 0 0 0-.318-.276 4.12 4.12 0 0 1-.629-.6.413.413 0 0 0-.508-.631 5.26 5.26 0 0 1-.731-1.257.414.414 0 0 0-.193-.773 2.65 2.65 0 0 1 0-.542 3.27 3.27 0 0 1 .2-.828.4.4 0 0 0 .069.006.414.414 0 0 0 .294-.7 2.21 2.21 0 0 1 .972-.838.414.414 0 0 0 .794-.079 2.77 2.77 0 0 1 1.188.543.4.4 0 0 0-.05.2.415.415 0 0 0 .414.414.41.41 0 0 0 .241-.078 6.56 6.56 0 0 1 .871 1.124.414.414 0 0 0 .245.747.42.42 0 0 0 .139-.024q.108.237.191.476a3.05 3.05 0 0 1 .169.872.413.413 0 0 0 .028.807c.008.292.016.645.025 1.082 0 .152.006.315.01.488a.414.414 0 0 0 .018.815c.01.409.021.867.035 1.379a.413.413 0 0 0 .023.808 7.9 7.9 0 0 0 .108 1.3.414.414 0 0 0 .205.773.4.4 0 0 0 .1-.012 1.72 1.72 0 0 0 .25.3 2.03 2.03 0 0 0 .679.419v.029a.413.413 0 0 0 .8.139 3.29 3.29 0 0 0 1.3-.182.414.414 0 0 0 .737-.259.43.43 0 0 0-.021-.13 3.45 3.45 0 0 0 .843-.931.4.4 0 0 0 .112.016.414.414 0 0 0 .253-.741c.016-.04.031-.079.046-.12a4.83 4.83 0 0 0 .288-1.4.414.414 0 0 0-.035-.822 3.6 3.6 0 0 0-.135-.6 2.91 2.91 0 0 0-.406-.815.413.413 0 0 0-.3-.693.416.416 0 0 0-.249.083c-.072-.067-.145-.133-.219-.2a6.8 6.8 0 0 1-.626-.621.414.414 0 0 0-.439-.658 3.66 3.66 0 0 1-.241-.607q-.082-.276-.135-.539a.414.414 0 0 0-.084-.8 2.79 2.79 0 0 1 .237-1.19.414.414 0 0 0 .457-.649 2.74 2.74 0 0 1 .948-.591.413.413 0 0 0 .764-.21c.149-.027.294-.046.431-.059a6.4 6.4 0 0 1 .849-.021.414.414 0 0 0 .786.074 7 7 0 0 1 1.181.28.4.4 0 0 0-.007.078.414.414 0 0 0 .755.234 6.8 6.8 0 0 1 .927.561.414.414 0 0 0 .593.486 5.18 5.18 0 0 1 .789.926.414.414 0 0 0 .315.683.4.4 0 0 0 .057 0 4.5 4.5 0 0 1 .256.761c.024.1.043.2.059.294a.414.414 0 0 0 .063.794 5 5 0 0 1-.16 1.18h-.04a.413.413 0 0 0-.217.766 6.9 6.9 0 0 1-.616 1.16.413.413 0 0 0-.537.4.41.41 0 0 0 .074.235c-.141.172-.239.273-.257.292a5.25 5.25 0 0 1-.732.621.415.415 0 0 0-.681.415c-.146.078-.288.15-.427.22a6.15 6.15 0 0 0-.868.5.41.41 0 0 0-.217-.061.413.413 0 0 0-.342.646 2.26 2.26 0 0 0-.2.4 2.95 2.95 0 0 0-.183.843.416.416 0 0 0-.3.385v.012a.414.414 0 0 0 .346.408 2.09 2.09 0 0 0 .51 1.038.414.414 0 1 0 .719.41 2.74 2.74 0 0 0 .718.09 3.4 3.4 0 0 0 .346-.018.414.414 0 0 0 .8-.158v-.005a4.43 4.43 0 0 0 .911-.4.414.414 0 0 0 .684-.314.42.42 0 0 0-.029-.152 4.32 4.32 0 0 0 .752-.834.41.41 0 0 0 .234.073.414.414 0 0 0 0-.828zM2.414 18.2a.307.307 0 1 1 .307-.307.307.307 0 0 1-.307.307m1.995 0a.307.307 0 1 1 .307-.307.306.306 0 0 1-.307.307m1.831-1.178a.307.307 0 1 1-.307-.306.308.308 0 0 1 .307.306m.668-1.512a.307.307 0 1 1-.308-.31.308.308 0 0 1 .308.31m-.254-2.217a.307.307 0 1 1-.307.307.308.308 0 0 1 .307-.307M5.711 11.3a.307.307 0 1 1-.307.306.306.306 0 0 1 .307-.306M4.245 9.8a.307.307 0 1 1-.306.307.307.307 0 0 1 .306-.307m-1.11-1.992a.307.307 0 1 1-.307.307.307.307 0 0 1 .307-.307m.573-1.885a.307.307 0 1 1-.308-.307.307.307 0 0 1 .308.307m1.346-.971a.307.307 0 1 1 .307-.307.307.307 0 0 1-.307.307m1.96.809a.307.307 0 1 1 .307-.307.307.307 0 0 1-.307.307m1.357 1.793a.307.307 0 1 1 .307-.307.308.308 0 0 1-.307.307m.291 1.832a.307.307 0 1 1 .307.307.307.307 0 0 1-.307-.307m.053 2.385a.307.307 0 1 1 .307.307.306.306 0 0 1-.307-.307m.377 2.5a.307.307 0 1 1 .308-.311.308.308 0 0 1-.308.307Zm.237 2.066a.307.307 0 1 1 .307-.307.308.308 0 0 1-.307.303Zm1.439 1.145a.307.307 0 1 1 .307-.306.307.307 0 0 1-.307.302zm2.01-.3a.307.307 0 1 1 .307-.307.308.308 0 0 1-.307.302zm1.655-1.766a.307.307 0 1 1-.307-.307.307.307 0 0 1 .307.302zm.22-2.563a.307.307 0 1 1-.307.306.307.307 0 0 1 .307-.311zm-.82-2.1a.307.307 0 1 1-.307.307.308.308 0 0 1 .307-.316zm-1.415-1.421a.307.307 0 1 1-.307.306.306.306 0 0 1 .307-.306M12.094 7.7a.307.307 0 1 1-.306-.306.306.306 0 0 1 .306.306m.116-1.685a.307.307 0 1 1 .306-.307.307.307 0 0 1-.306.311Zm1.623-1.067a.307.307 0 1 1 .307-.307.307.307 0 0 1-.307.311Zm2.1-.158a.307.307 0 1 1 .306-.307.308.308 0 0 1-.308.311zm1.969.518a.307.307 0 1 1 .307-.306.307.307 0 0 1-.309.31Zm1.664.918a.307.307 0 1 1 .307-.307.308.308 0 0 1-.309.311Zm1.3 1.558a.307.307 0 1 1 .307-.306.307.307 0 0 1-.308.31zm.209 1.546a.307.307 0 1 1 .307.306.307.307 0 0 1-.308-.302zm-.281 2a.307.307 0 1 1 .307.307.307.307 0 0 1-.308-.305zm-.649 1.6a.307.307 0 1 1-.306.306.307.307 0 0 1 .305-.303zm-1.611 1.45a.307.307 0 1 1-.307.307.307.307 0 0 1 .306-.304zm-1.911 1.181a.307.307 0 1 1-.306.307.308.308 0 0 1 .305-.304zm-.916 2.179a.307.307 0 1 1 .307.307.308.308 0 0 1-.308-.304zm1.1 1.965a.307.307 0 1 1 .307-.307.307.307 0 0 1-.304.31zm1.811.112a.307.307 0 1 1 .306-.307.307.307 0 0 1-.303.31zm1.594-.721a.307.307 0 1 1 .306-.307.307.307 0 0 1-.303.311zm1.371-1.328a.307.307 0 1 1 .307-.306.307.307 0 0 1-.304.309z"/></svg>

<?xml version="1.0" encoding="UTF-8"?>
<svg width="24px" fill="#44739e" height="24px" viewBox="0 0 24 24" version="1.1" xmlns="http://www.w3.org/2000/svg" xmlns:xlink="http://www.w3.org/1999/xlink">
            <path d="m 21.586,17.051 a 0.414,0.414 0 0 0 -0.414,0.414 0.408,0.408 0 0 0 0.066,0.223 l -0.015,0.021 a 4.14,4.14 0 0 1 -0.712,0.8 0.409,0.409 0 0 0 -0.3,-0.126 0.414,0.414 0 0 0 -0.37,0.6 A 4.231,4.231 0 0 1 19,19.35 0.414,0.414 0 0 0 18.206,19.513 v 0 a 2.773,2.773 0 0 1 -0.986,-0.067 0.329,0.329 0 0 0 0,-0.045 0.415,0.415 0 0 0 -0.414,-0.414 0.408,0.408 0 0 0 -0.247,0.083 1.9,1.9 0 0 1 -0.453,-0.925 0.414,0.414 0 0 0 0.317,-0.4 V 17.73 a 0.414,0.414 0 0 0 -0.365,-0.4 2.731,2.731 0 0 1 0.168,-0.771 2.191,2.191 0 0 1 0.169,-0.343 0.407,0.407 0 0 0 0.224,0.067 0.413,0.413 0 0 0 0.336,-0.655 6.237,6.237 0 0 1 0.822,-0.465 c 0.138,-0.069 0.281,-0.141 0.427,-0.22 a 0.414,0.414 0 0 0 0.74,-0.255 0.409,0.409 0 0 0 -0.038,-0.172 5.348,5.348 0 0 0 0.753,-0.64 c 0.019,-0.019 0.116,-0.12 0.258,-0.291 a 0.407,0.407 0 0 0 0.224,0.067 0.414,0.414 0 0 0 0.264,-0.733 7.176,7.176 0 0 0 0.625,-1.181 0.371,0.371 0 0 0 0.067,0.006 0.414,0.414 0 0 0 0.193,-0.78 A 5.06,5.06 0 0 0 21.46,9.74 0.414,0.414 0 0 0 21.396,8.92 C 21.379,8.82 21.359,8.72 21.335,8.62 A 4.6,4.6 0 0 0 21.074,7.843 0.41401238,0.41401238 0 0 0 20.674,7.118 5.34,5.34 0 0 0 19.882,6.189 0.414,0.414 0 0 0 19.242,5.664 7.009,7.009 0 0 0 18.302,5.097 0.414,0.414 0 0 0 17.551,4.783 7.154,7.154 0 0 0 16.342,4.496 v 0 A 0.414,0.414 0 0 0 15.521,4.422 6.472,6.472 0 0 0 14.658,4.444 c -0.141,0.013 -0.289,0.033 -0.443,0.061 a 0.413,0.413 0 0 0 -0.8,0.149 0.374,0.374 0 0 0 0.006,0.068 2.889,2.889 0 0 0 -1.014,0.637 0.414,0.414 0 0 0 -0.474,0.673 2.933,2.933 0 0 0 -0.258,1.282 0.413,0.413 0 0 0 0.086,0.812 c 0.036,0.183 0.082,0.371 0.14,0.564 a 3.849,3.849 0 0 0 0.252,0.636 0.414,0.414 0 0 0 0.458,0.685 6.754,6.754 0 0 0 0.642,0.637 c 0.074,0.067 0.148,0.134 0.22,0.2 a 0.41,0.41 0 0 0 -0.058,0.211 0.414,0.414 0 0 0 0.414,0.414 0.407,0.407 0 0 0 0.174,-0.039 2.728,2.728 0 0 1 0.382,0.768 3.412,3.412 0 0 1 0.13,0.569 0.414,0.414 0 0 0 0.033,0.793 4.648,4.648 0 0 1 -0.278,1.353 c -0.013,0.034 -0.026,0.069 -0.04,0.1 A 0.386,0.386 0 0 0 14.126,15 a 0.413,0.413 0 0 0 -0.258,0.737 3.37,3.37 0 0 1 -0.779,0.863 0.414,0.414 0 0 0 -0.725,0.273 0.437,0.437 0 0 0 0.016,0.115 3.131,3.131 0 0 1 -1.2,0.168 0.414,0.414 0 0 0 -0.784,-0.165 1.9,1.9 0 0 1 -0.611,-0.381 1.584,1.584 0 0 1 -0.212,-0.248 0.414,0.414 0 0 0 -0.245,-0.747 0.4,0.4 0 0 0 -0.049,0 8.067,8.067 0 0 1 -0.1,-1.25 0.414,0.414 0 0 0 -0.023,-0.814 C 9.142,13.04 9.131,12.582 9.121,12.173 A 0.413,0.413 0 0 0 9.103,11.365 C 9.103,11.19 9.096,11.027 9.093,10.874 9.084,10.436 9.076,10.082 9.068,9.788 A 0.414,0.414 0 0 0 9.033,8.977 3.182,3.182 0 0 0 8.855,8.06 Q 8.767,7.805 8.655,7.553 A 0.414,0.414 0 0 0 8.376,6.833 0.437,0.437 0 0 0 8.276,6.845 6.605,6.605 0 0 0 7.367,5.673 0.414,0.414 0 0 0 6.752,5.135 2.954,2.954 0 0 0 5.46,4.553 0.414,0.414 0 0 0 4.643,4.631 2.337,2.337 0 0 0 3.563,5.541 0.4,0.4 0 0 0 3.4,5.509 0.413,0.413 0 0 0 3.18,6.273 a 3.418,3.418 0 0 0 -0.211,0.87 2.767,2.767 0 0 0 0,0.59 0.414,0.414 0 0 0 0.161,0.8 h 0.034 a 5.381,5.381 0 0 0 0.766,1.306 0.414,0.414 0 0 0 0.51,0.633 4.241,4.241 0 0 0 0.654,0.625 3.325,3.325 0 0 1 0.294,0.254 0.413,0.413 0 0 0 0.323,0.673 0.42,0.42 0 0 0 0.173,-0.038 5.021,5.021 0 0 1 0.6,1.239 0.414,0.414 0 0 0 0.167,0.789 3.9,3.9 0 0 1 -0.006,0.916 L 6.62,15.1 H 6.6 A 0.414,0.414 0 0 0 6.438,15.9 3.267,3.267 0 0 1 6.084,16.646 0.424,0.424 0 0 0 5.932,16.617 0.413,0.413 0 0 0 5.574,17.238 2.762,2.762 0 0 1 5.34,17.423 2.852,2.852 0 0 1 4.784,17.723 0.414,0.414 0 0 0 4.011,17.78 0.445,0.445 0 0 0 4,17.892 v 0.031 A 3.8,3.8 0 0 1 2.83,17.875 0.369,0.369 0 0 0 2.815,17.781 0.413,0.413 0 1 0 2.806,18.034 4,4 0 0 0 4.043,18.079 0.414,0.414 0 0 0 4.827,17.892 V 17.878 C 4.905,17.846 4.983,17.811 5.06,17.772 a 2.933,2.933 0 0 0 0.378,-0.227 2.866,2.866 0 0 0 0.247,-0.2 0.414,0.414 0 0 0 0.54,-0.625 3.453,3.453 0 0 0 0.377,-0.8 v 0 a 0.414,0.414 0 0 0 0.176,-0.788 c 0.01,-0.07 0.018,-0.133 0.024,-0.186 a 4.1,4.1 0 0 0 0,-0.965 0.414,0.414 0 0 0 -0.152,-0.8 H 6.637 A 5.178,5.178 0 0 0 6.014,11.881 0.414,0.414 0 0 0 5.514,11.237 3.287,3.287 0 0 0 5.196,10.961 4.12,4.12 0 0 1 4.567,10.361 0.413,0.413 0 0 0 4.059,9.73 5.255,5.255 0 0 1 3.328,8.473 0.414,0.414 0 0 0 3.135,7.7 v 0 a 2.651,2.651 0 0 1 0,-0.542 3.269,3.269 0 0 1 0.2,-0.828 0.393,0.393 0 0 0 0.069,0.006 0.414,0.414 0 0 0 0.294,-0.7 A 2.209,2.209 0 0 1 4.67,4.798 0.414,0.414 0 0 0 5.464,4.719 2.77,2.77 0 0 1 6.652,5.262 0.4,0.4 0 0 0 6.602,5.462 0.415,0.415 0 0 0 7.016,5.876 0.41,0.41 0 0 0 7.257,5.798 6.556,6.556 0 0 1 8.128,6.922 0.414,0.414 0 0 0 8.373,7.669 0.423,0.423 0 0 0 8.512,7.645 Q 8.62,7.882 8.703,8.121 A 3.046,3.046 0 0 1 8.872,8.993 0.413,0.413 0 0 0 8.9,9.8 c 0.008,0.292 0.016,0.645 0.025,1.082 0,0.152 0.006,0.315 0.01,0.488 a 0.414,0.414 0 0 0 0.018,0.815 c 0.01,0.409 0.021,0.867 0.035,1.379 a 0.413,0.413 0 0 0 0.023,0.808 7.881,7.881 0 0 0 0.108,1.3 0.414,0.414 0 0 0 0.205,0.773 0.391,0.391 0 0 0 0.1,-0.012 1.722,1.722 0 0 0 0.25,0.3 2.032,2.032 0 0 0 0.679,0.419 v 0.029 a 0.413,0.413 0 0 0 0.8,0.139 3.293,3.293 0 0 0 1.3,-0.182 0.414,0.414 0 0 0 0.737,-0.259 0.427,0.427 0 0 0 -0.021,-0.13 3.448,3.448 0 0 0 0.843,-0.931 0.41,0.41 0 0 0 0.112,0.016 0.414,0.414 0 0 0 0.253,-0.741 c 0.016,-0.04 0.031,-0.079 0.046,-0.12 a 4.826,4.826 0 0 0 0.288,-1.4 0.414,0.414 0 0 0 -0.035,-0.822 3.624,3.624 0 0 0 -0.135,-0.6 2.913,2.913 0 0 0 -0.406,-0.815 0.413,0.413 0 0 0 -0.3,-0.693 0.416,0.416 0 0 0 -0.249,0.083 c -0.072,-0.067 -0.145,-0.133 -0.219,-0.2 A 6.777,6.777 0 0 1 12.741,9.905 0.414,0.414 0 0 0 12.302,9.247 3.655,3.655 0 0 1 12.061,8.64 Q 11.979,8.364 11.926,8.101 a 0.414,0.414 0 0 0 -0.084,-0.8 2.792,2.792 0 0 1 0.237,-1.19 0.414,0.414 0 0 0 0.457,-0.649 2.737,2.737 0 0 1 0.948,-0.591 0.413,0.413 0 0 0 0.764,-0.21 c 0.149,-0.027 0.294,-0.046 0.431,-0.059 a 6.432,6.432 0 0 1 0.849,-0.021 0.414,0.414 0 0 0 0.786,0.074 7.016,7.016 0 0 1 1.181,0.28 0.4,0.4 0 0 0 -0.007,0.078 0.414,0.414 0 0 0 0.755,0.234 6.768,6.768 0 0 1 0.927,0.561 0.414,0.414 0 0 0 0.593,0.486 5.184,5.184 0 0 1 0.789,0.926 0.414,0.414 0 0 0 0.315,0.683 0.366,0.366 0 0 0 0.057,0 4.5,4.5 0 0 1 0.256,0.761 c 0.024,0.1 0.043,0.2 0.059,0.294 a 0.414,0.414 0 0 0 0.063,0.794 5,5 0 0 1 -0.16,1.18 h -0.04 a 0.413,0.413 0 0 0 -0.217,0.766 6.921,6.921 0 0 1 -0.616,1.16 0.413,0.413 0 0 0 -0.537,0.4 0.41,0.41 0 0 0 0.074,0.235 c -0.141,0.172 -0.239,0.273 -0.257,0.292 a 5.249,5.249 0 0 1 -0.732,0.621 0.415,0.415 0 0 0 -0.681,0.415 c -0.146,0.078 -0.288,0.15 -0.427,0.22 a 6.153,6.153 0 0 0 -0.868,0.5 0.41,0.41 0 0 0 -0.217,-0.061 0.413,0.413 0 0 0 -0.342,0.646 2.264,2.264 0 0 0 -0.2,0.4 2.954,2.954 0 0 0 -0.183,0.843 0.416,0.416 0 0 0 -0.3,0.385 v 0.012 a 0.414,0.414 0 0 0 0.346,0.408 2.092,2.092 0 0 0 0.51,1.038 0.414,0.414 0 1 0 0.719,0.41 2.74,2.74 0 0 0 0.718,0.09 3.415,3.415 0 0 0 0.346,-0.018 0.414,0.414 0 0 0 0.8,-0.158 v -0.005 a 4.431,4.431 0 0 0 0.911,-0.4 0.414,0.414 0 0 0 0.684,-0.314 0.424,0.424 0 0 0 -0.029,-0.152 4.322,4.322 0 0 0 0.752,-0.834 0.408,0.408 0 0 0 0.234,0.073 0.414,0.414 0 0 0 0,-0.828 z M 2.414,18.2 A 0.307,0.307 0 1 1 2.721,17.893 0.307,0.307 0 0 1 2.414,18.2 Z m 1.995,0 A 0.307,0.307 0 1 1 4.716,17.893 0.306,0.306 0 0 1 4.409,18.2 Z M 6.24,17.022 A 0.307,0.307 0 1 1 5.933,16.716 0.308,0.308 0 0 1 6.24,17.022 Z M 6.908,15.51 A 0.307,0.307 0 1 1 6.6,15.2 0.308,0.308 0 0 1 6.908,15.51 Z M 6.654,13.293 A 0.307,0.307 0 1 1 6.347,13.6 0.308,0.308 0 0 1 6.654,13.293 Z M 5.711,11.3 A 0.307,0.307 0 1 1 5.404,11.606 0.306,0.306 0 0 1 5.711,11.3 Z M 4.245,9.8 A 0.307,0.307 0 1 1 3.939,10.107 0.307,0.307 0 0 1 4.245,9.8 Z M 3.135,7.808 A 0.307,0.307 0 1 1 2.828,8.115 0.307,0.307 0 0 1 3.135,7.808 Z M 3.708,5.923 A 0.307,0.307 0 1 1 3.4,5.616 0.307,0.307 0 0 1 3.708,5.923 Z M 5.054,4.952 A 0.307,0.307 0 1 1 5.361,4.645 0.307,0.307 0 0 1 5.054,4.952 Z m 1.96,0.809 A 0.307,0.307 0 1 1 7.321,5.454 0.307,0.307 0 0 1 7.014,5.761 Z M 8.371,7.554 A 0.307,0.307 0 1 1 8.678,7.247 0.308,0.308 0 0 1 8.371,7.554 Z M 8.662,9.386 A 0.307,0.307 0 1 1 8.969,9.693 0.307,0.307 0 0 1 8.662,9.386 Z m 0.053,2.385 a 0.307,0.307 0 1 1 0.307,0.307 0.306,0.306 0 0 1 -0.307,-0.307 z m 0.377,2.5 A 0.307,0.307 0 1 1 9.4,13.96 0.308,0.308 0 0 1 9.092,14.267 Z m 0.237,2.066 A 0.307,0.307 0 1 1 9.636,16.03 0.308,0.308 0 0 1 9.329,16.333 Z m 1.439,1.145 a 0.307,0.307 0 1 1 0.307,-0.306 0.307,0.307 0 0 1 -0.307,0.302 z m 2.01,-0.3 a 0.307,0.307 0 1 1 0.307,-0.307 0.308,0.308 0 0 1 -0.307,0.302 z m 1.655,-1.766 a 0.307,0.307 0 1 1 -0.307,-0.307 0.307,0.307 0 0 1 0.307,0.302 z m 0.22,-2.563 a 0.307,0.307 0 1 1 -0.307,0.306 0.307,0.307 0 0 1 0.307,-0.311 z m -0.82,-2.1 a 0.307,0.307 0 1 1 -0.307,0.307 0.308,0.308 0 0 1 0.307,-0.316 z M 12.418,9.332 A 0.307,0.307 0 1 1 12.111,9.638 0.306,0.306 0 0 1 12.418,9.332 Z M 12.094,7.7 A 0.307,0.307 0 1 1 11.788,7.394 0.306,0.306 0 0 1 12.094,7.7 Z M 12.21,6.015 A 0.307,0.307 0 1 1 12.516,5.708 0.307,0.307 0 0 1 12.21,6.019 Z M 13.833,4.948 A 0.307,0.307 0 1 1 14.14,4.641 0.307,0.307 0 0 1 13.833,4.952 Z m 2.1,-0.158 a 0.307,0.307 0 1 1 0.306,-0.307 0.308,0.308 0 0 1 -0.308,0.311 z m 1.969,0.518 A 0.307,0.307 0 1 1 18.209,5.002 0.307,0.307 0 0 1 17.9,5.312 Z m 1.664,0.918 A 0.307,0.307 0 1 1 19.873,5.919 0.308,0.308 0 0 1 19.564,6.23 Z m 1.3,1.558 a 0.307,0.307 0 1 1 0.307,-0.306 0.307,0.307 0 0 1 -0.308,0.31 z m 0.209,1.546 a 0.307,0.307 0 1 1 0.307,0.306 0.307,0.307 0 0 1 -0.308,-0.302 z m -0.281,2 a 0.307,0.307 0 1 1 0.307,0.307 0.307,0.307 0 0 1 -0.308,-0.305 z m -0.649,1.6 a 0.307,0.307 0 1 1 -0.306,0.306 0.307,0.307 0 0 1 0.305,-0.303 z m -1.611,1.45 a 0.307,0.307 0 1 1 -0.307,0.307 0.307,0.307 0 0 1 0.306,-0.304 z m -1.911,1.181 a 0.307,0.307 0 1 1 -0.306,0.307 0.308,0.308 0 0 1 0.305,-0.304 z m -0.916,2.179 a 0.307,0.307 0 1 1 0.307,0.307 0.308,0.308 0 0 1 -0.308,-0.304 z m 1.1,1.965 a 0.307,0.307 0 1 1 0.307,-0.307 0.307,0.307 0 0 1 -0.304,0.31 z m 1.811,0.112 a 0.307,0.307 0 1 1 0.306,-0.307 0.307,0.307 0 0 1 -0.303,0.31 z m 1.594,-0.721 a 0.307,0.307 0 1 1 0.306,-0.307 0.307,0.307 0 0 1 -0.303,0.311 z m 1.371,-1.328 a 0.307,0.307 0 1 1 0.307,-0.306 0.307,0.307 0 0 1 -0.304,0.309 z"/>

</svg>
